X:1
T:Lord Banner
M:6/8
L:1/8
K:Bb
F-D FF-D F| B2- B d2 B| F2 FF-E D| E3- E2 F|F-D FF-D F| B2 B d2 B|\
 c2 cA-G A| B3- B2 z|
